public/img/icon-trezor-white.svg

<?xml version="1.0" standalone="no"?><!DOCTYPE svg PUBLIC "-//W3C//DTD SVG 1.1//EN" "http://www.w3.org/Graphics/SVG/1.1/DTD/svg11.dtd"><svg width="100%" height="100%" viewBox="0 0 13 19" version="1.1" xmlns="http://www.w3.org/2000/svg" xmlns:xlink="http://www.w3.org/1999/xlink" xml:space="preserve" style="fill-rule:evenodd;clip-rule:evenodd;stroke-miterlimit:1.41421;"><g id="Group"><path id="Rectangle-211" d="M10.406,4.157c0,-0.248 -0.202,-0.45 -0.45,-0.45l-7.282,0c-0.248,0 -0.45,0.202 -0.45,0.45l0,3.313c0,0.248 0.202,0.45 0.45,0.45l7.282,0c0.248,0 0.45,-0.202 0.45,-0.45l0,-3.313Z" style="fill:none;stroke-width:0.72px;stroke:#fff;"/><path id="Rectangle-211-Copy" d="M5.943,9.519c0,-0.249 -0.202,-0.45 -0.45,-0.45l-2.819,0c-0.248,0 -0.45,0.201 -0.45,0.45l0,1.015c0,0.248 0.202,0.45 0.45,0.45l2.819,0c0.248,0 0.45,-0.202 0.45,-0.45l0,-1.015Z" style="fill:none;stroke-width:0.72px;stroke:#fff;"/><path id="Rectangle-211-Copy-2" d="M10.406,9.519c0,-0.249 -0.202,-0.45 -0.45,-0.45l-2.819,0c-0.249,0 -0.45,0.201 -0.45,0.45l0,1.015c0,0.248 0.201,0.45 0.45,0.45l2.819,0c0.248,0 0.45,-0.202 0.45,-0.45l0,-1.015Z" style="fill:none;stroke-width:0.72px;stroke:#fff;"/><path id="Path-394" d="M0.751,2.035c-0.017,-0.75 0.57,-1.358 1.316,-1.358l8.47,0c0.744,0 1.346,0.599 1.346,1.349l0,9.806c0,0.501 -0.168,1.265 -0.386,1.726l-1.924,4.079c-0.213,0.453 -0.791,0.82 -1.288,0.82l-3.583,0c-0.498,0 -1.078,-0.372 -1.287,-0.815l-2.042,-4.318c-0.213,-0.45 -0.394,-1.208 -0.405,-1.723l-0.217,-9.566Z" style="fill:none;stroke-width:0.72px;stroke:#fff;"/></g></svg>

<?xml version="1.0" standalone="no"?>
<!DOCTYPE svg PUBLIC "-//W3C//DTD SVG 1.1//EN" "http://www.w3.org/Graphics/SVG/1.1/DTD/svg11.dtd">
<svg width="100%" height="100%" viewBox="0 0 13 19" version="1.1" xmlns="http://www.w3.org/2000/svg" xmlns:xlink="http://www.w3.org/1999/xlink" xml:space="preserve" style="fill-rule:evenodd;clip-rule:evenodd;stroke-miterlimit:1.41421;">
    <g id="Group">
        <path id="Rectangle-211" d="M10.406,4.157C10.406,3.909 10.204,3.707 9.956,3.707L2.674,3.707C2.426,3.707 2.224,3.909 2.224,4.157L2.224,7.47C2.224,7.718 2.426,7.92 2.674,7.92L9.956,7.92C10.204,7.92 10.406,7.718 10.406,7.47L10.406,4.157Z" style="fill:none;stroke-width:0.72px;stroke:white;"/>
        <path id="Rectangle-211-Copy" d="M5.943,9.519C5.943,9.27 5.741,9.069 5.493,9.069L2.674,9.069C2.426,9.069 2.224,9.27 2.224,9.519L2.224,10.534C2.224,10.782 2.426,10.984 2.674,10.984L5.493,10.984C5.741,10.984 5.943,10.782 5.943,10.534L5.943,9.519Z" style="fill:none;stroke-width:0.72px;stroke:white;"/>
        <path id="Rectangle-211-Copy-2" d="M10.406,9.519C10.406,9.27 10.204,9.069 9.956,9.069L7.137,9.069C6.888,9.069 6.687,9.27 6.687,9.519L6.687,10.534C6.687,10.782 6.888,10.984 7.137,10.984L9.956,10.984C10.204,10.984 10.406,10.782 10.406,10.534L10.406,9.519Z" style="fill:none;stroke-width:0.72px;stroke:white;"/>
        <path id="Path-394" d="M0.751,2.035C0.734,1.285 1.321,0.677 2.067,0.677L10.537,0.677C11.281,0.677 11.883,1.276 11.883,2.026L11.883,11.832C11.883,12.333 11.715,13.097 11.497,13.558L9.573,17.637C9.36,18.09 8.782,18.457 8.285,18.457L4.702,18.457C4.204,18.457 3.624,18.085 3.415,17.642L1.373,13.324C1.16,12.874 0.979,12.116 0.968,11.601L0.751,2.035L0.751,2.035Z" style="fill:none;stroke-width:0.72px;stroke:white;"/>
    </g>
</svg>
